dist/icons/benefits/3.svg

<svg width="60" height="60" viewBox="0 0 60 60" fill="none" xmlns="http://www.w3.org/2000/svg">
<path d="M37.6269 46.0962C42.0577 46.0962 46.3039 44.8039 49.9962 42.3115L58.5808 46.0962C58.6731 46.0962 58.7654 46.1885 58.8577 46.1885C59.0423 46.1885 59.2269 46.0962 59.3192 46.0038C59.5039 45.8192 59.5962 45.5423 59.5038 45.2654L56.4577 35.3885C58.4885 31.9731 59.5038 28.1885 59.5038 24.2192C59.5038 12.1269 49.6269 2.25 37.5346 2.25C25.4423 2.25 15.75 12.0346 15.75 24.1269C15.75 36.2192 25.5346 46.0962 37.6269 46.0962ZM37.6269 3.63462C48.9808 3.63462 58.2115 12.8654 58.2115 24.2192C58.2115 28.0038 57.1962 31.6962 55.1654 34.9269C55.0731 35.1115 55.0731 35.2962 55.0731 35.4808L57.75 44.1577L50.1808 40.8346C49.9962 40.7423 49.7192 40.7423 49.5346 40.9269C46.0269 43.4192 41.9654 44.7115 37.6269 44.7115C26.2731 44.7115 17.0423 35.4808 17.0423 24.1269C17.0423 12.7731 26.2731 3.63462 37.6269 3.63462Z" fill="black" fill-opacity="0.8"/>
<path d="M27.231 19.7766C24.831 19.7766 22.8926 21.7151 22.8926 24.2074C22.8926 26.6997 24.831 28.6381 27.231 28.6381C29.631 28.6381 31.6618 26.6997 31.6618 24.2074C31.6618 21.7151 29.631 19.7766 27.231 19.7766ZM27.231 27.1612C25.5695 27.1612 24.2772 25.7766 24.2772 24.1151C24.2772 22.4535 25.6618 21.0689 27.231 21.0689C28.8003 21.0689 30.2772 22.4535 30.2772 24.1151C30.2772 25.7766 28.8926 27.1612 27.231 27.1612Z" fill="black" fill-opacity="0.8"/>
<path d="M33.9695 24.1153C33.9695 26.5153 35.9079 28.5461 38.4003 28.5461C40.8003 28.5461 42.7387 26.6076 42.7387 24.1153C42.7387 21.623 40.8003 19.6846 38.4003 19.6846C35.9079 19.7769 33.9695 21.7153 33.9695 24.1153ZM38.3079 21.1615C39.9695 21.1615 41.2618 22.5461 41.2618 24.2076C41.2618 25.8692 39.8772 27.2538 38.3079 27.2538C36.7387 27.2538 35.2618 25.8692 35.2618 24.2076C35.2618 22.5461 36.6464 21.1615 38.3079 21.1615Z" fill="black" fill-opacity="0.8"/>
<path d="M49.3849 28.5461C51.7849 28.5461 53.8156 26.6076 53.8156 24.1153C53.8156 21.623 51.8772 19.6846 49.3849 19.6846C46.8926 19.6846 44.9541 21.623 44.9541 24.1153C44.9541 26.6076 46.9849 28.5461 49.3849 28.5461ZM49.3849 21.1615C51.0464 21.1615 52.431 22.5461 52.431 24.2076C52.431 25.8692 51.0464 27.2538 49.3849 27.2538C47.7233 27.2538 46.3387 25.8692 46.3387 24.2076C46.3387 22.5461 47.7233 21.1615 49.3849 21.1615Z" fill="black" fill-opacity="0.8"/>
<path d="M36.4616 48.4847C32.677 51.9924 27.7847 53.8385 22.6155 53.8385C18.3693 53.8385 14.2155 52.5462 10.7078 50.0539C10.5232 49.8693 10.2463 49.8693 10.0616 49.9616L2.49242 53.2847L5.16934 44.6077C5.26165 44.4231 5.16934 44.2385 5.07703 44.0539C3.13857 40.8231 2.03088 37.1308 2.03088 33.3462C2.03088 24.8539 7.1078 17.377 14.954 14.2385C15.3232 14.0539 15.5078 13.6847 15.3232 13.3154C15.1386 12.9462 14.7693 12.7616 14.4001 12.9462C6.00011 16.2693 0.553955 24.3 0.553955 33.3462C0.553955 37.3154 1.56934 41.1924 3.60011 44.5154L0.73857 54.3924C0.646263 54.6693 0.73857 54.9462 0.923186 55.1308C1.01549 55.2231 1.20011 55.3154 1.38472 55.3154C1.47703 55.3154 1.56934 55.3154 1.66165 55.2231L10.2463 51.4385C13.9386 53.9308 18.1847 55.2231 22.6155 55.2231C28.0616 55.2231 33.3232 53.1924 37.3847 49.5C37.6616 49.2231 37.6616 48.7616 37.3847 48.4847C37.2001 48.3001 36.7386 48.3001 36.4616 48.4847Z" fill="black" fill-opacity="0.8"/>
</svg>

<svg width="60" height="60" fill="none" xmlns="http://www.w3.org/2000/svg"><path d="M37.627 46.096c4.43 0 8.677-1.292 12.37-3.784l8.584 3.784c.092 0 .184.093.277.093a.706.706 0 00.461-.185.717.717 0 00.185-.739l-3.046-9.877c2.03-3.415 3.046-7.2 3.046-11.169 0-12.092-9.877-21.969-21.97-21.969-12.092 0-21.784 9.785-21.784 21.877 0 12.092 9.785 21.97 21.877 21.97zm0-42.461c11.354 0 20.584 9.23 20.584 20.584 0 3.785-1.015 7.477-3.046 10.708-.092.184-.092.37-.092.554l2.677 8.677-7.57-3.323a.565.565 0 00-.645.092c-3.508 2.492-7.57 3.785-11.908 3.785-11.354 0-20.585-9.231-20.585-20.585 0-11.354 9.231-20.492 20.585-20.492z" fill="#000" fill-opacity=".8"/><path d="M27.231 19.777c-2.4 0-4.338 1.938-4.338 4.43 0 2.493 1.938 4.431 4.338 4.431 2.4 0 4.43-1.938 4.43-4.43 0-2.493-2.03-4.431-4.43-4.431zm0 7.384c-1.662 0-2.954-1.384-2.954-3.046s1.385-3.046 2.954-3.046c1.57 0 3.046 1.384 3.046 3.046s-1.384 3.046-3.046 3.046zm6.739-3.046c0 2.4 1.938 4.431 4.43 4.431 2.4 0 4.339-1.938 4.339-4.43 0-2.493-1.939-4.431-4.339-4.431-2.492.092-4.43 2.03-4.43 4.43zm4.338-2.953c1.661 0 2.954 1.384 2.954 3.046 0 1.661-1.385 3.046-2.954 3.046-1.57 0-3.046-1.385-3.046-3.046 0-1.662 1.384-3.046 3.046-3.046zm11.077 7.384c2.4 0 4.43-1.938 4.43-4.43 0-2.493-1.938-4.431-4.43-4.431s-4.43 1.938-4.43 4.43c0 2.493 2.03 4.431 4.43 4.431zm0-7.384c1.661 0 3.046 1.384 3.046 3.046 0 1.661-1.385 3.046-3.046 3.046-1.662 0-3.046-1.385-3.046-3.046 0-1.662 1.384-3.046 3.046-3.046z" fill="#000" fill-opacity=".8"/><path d="M36.462 48.485c-3.785 3.507-8.677 5.354-13.847 5.354a20.51 20.51 0 01-11.907-3.785.567.567 0 00-.646-.092l-7.57 3.323 2.677-8.677c.093-.185 0-.37-.092-.554-1.938-3.23-3.046-6.923-3.046-10.708 0-8.492 5.077-15.969 12.923-19.107.37-.185.554-.554.37-.924-.185-.369-.555-.553-.924-.369C6 16.27.554 24.3.554 33.346c0 3.97 1.015 7.846 3.046 11.17L.74 54.391a.718.718 0 00.184.739.705.705 0 00.462.184c.092 0 .184 0 .277-.092l8.584-3.785a21.944 21.944 0 0012.37 3.785c5.446 0 10.707-2.03 14.769-5.723a.724.724 0 000-1.015c-.185-.185-.646-.185-.923 0z" fill="#000" fill-opacity=".8"/></svg>
